X:222
M:4/4
L:1/4
K:Bb
F | F F F B | c A B c | G A G G | F3 F | B c d B | e d c !sintro!B | c d c c | B3 !eintro!|]
